X:1
T:Title
%%score 1 ( 2 3 )
L:1/8
Q:1/4=112
M:4/4
K:C
V:1 treble nm="Grand Piano, Soprano"
V:2 bass nm="Choir Pad, Bass"
V:3 bass 
V:1
 [EG]2 [Ec]2 [Ec]2 [GB]2 | [FA]2 [FA]2 [EG]2 [EG]2 | [Ec][Ed] [Fc]2 [FB]2 [FA]2 | [FB]2 [Ec]6 | %4
w: By~Bentley~DeForest~Ackley,~1923 * * *||||
 [EG]2 [FA]2 [FA]2 [GB]2 | [FA]2 [FA]2 [EG]2 [Ec]2 | [FB][Gc] [^Fd]2 [Fc]2 [FB]2 | [^FA]2 [DG]6 | %8
w: ||||
 [B,E]>[B,D] C4 [CE]2- | [CE]2 [EG]6 | [EG][CE] [CF]4 [FA]2- | [FA]2 [Fc]6 | %12
w: ||||
 [FB][Fc] [^Fd]2 [FA]2 [FA]2 | [FB]2 [Ec]2 [Fc]2 [Gc]2 | [Ac][Ad] [Ge]4 [Fd]2- | [Fd]2 [Ec]6- | %16
w: ||||
 [Ec]2 z2 z4 |] %17
w: |
V:2
 [C,C]2 [C,G,]2 [C,G,]2 [C,G,]2 | [C,C]2 [C,C]2 [C,C]2 [C,C]2 | %2
 [C,G,][C,G,] [D,G,]2 [G,D]2 [G,B,]2 | G,2 [C,G,]6 | [C,C]2 [F,C]2 [F,C]2 [F,C]2 | %5
 [F,C]2 [C,C]2 [C,C]2 [C,G,]2 | [C,G,][E,C] [D,A,]2 [D,A,]2 [D,D]2 | [D,C]2 [G,B,]6 | %8
 [G,,G,]>[G,,F,] C,2- [C,-E,][C,E,] G,2 | G,2 C2- [C,C-]2 [C,C]2 | [C,C][C,_B,] A,2 A,A, C2 | %11
 C2 A,2 A,2 A,2 | [F,A,][F,A,] [D,A,]2 [D,D]2 [D,D]2 | G,2 [C,G,]2 [D,G,]2 [E,C]2 | %14
 [F,C][F,C] [G,C]4 [G,B,]2- | [G,B,]2 [C,G,]6- | [C,G,]2 z2 z4 |] %17
V:3
 x8 | x8 | x8 | x8 | x8 | x8 | x8 | x8 | z2 E,2 z2 C,2- | C,2 C,2 z4 | z2 F,4 F,2- | F,2 F,6 | x8 | %13
 x8 | x8 | x8 | x8 |] %17

